frontend/public/svg/emojis/laugh-emoji.svg

<svg width="159" height="156" viewBox="0 0 159 156" fill="none" xmlns="http://www.w3.org/2000/svg">
<path d="M82.1183 122.78C70.4037 122.232 59.3662 119.713 50.1807 111.8C44.366 106.79 41.5315 100.424 41.5585 92.7651C41.5816 86.3911 44.0106 83.537 50.4712 82.9722C60.5607 82.0919 70.6685 81.2739 80.785 80.7545C90.6822 80.2459 100.6 80.1017 110.512 79.8742C118.502 79.6927 121.243 82.8103 118.841 90.5237C117.064 96.5441 114.515 102.309 111.257 107.675C104.496 118.372 94.8704 122.951 82.1183 122.78ZM54.8015 106.611C70.5113 91.4433 87.8687 92.3317 106.674 100.369C108.034 96.4075 109.389 92.4583 111.149 87.3302L47.682 88.7963C47.3706 96.3817 49.3058 102.36 54.8015 106.611ZM60.3623 110.118C71.1391 116.561 94.7844 118.537 101.639 106.521C92.9798 97.805 68.9106 99.7749 60.3623 110.118Z" fill="black"/>
<path d="M152.809 75.0868C152.766 81.5475 146.973 86.4101 140.327 85.9855C132.337 85.4756 124.614 79.0786 122.405 71.2914C121.614 68.5002 122.829 66.6379 124.989 65.3514C132.112 61.1097 139.419 60.7198 146.714 64.8957C150.754 67.2109 152.543 70.9583 152.809 75.0868ZM131.621 71.3109L131.382 72.5169C132.433 74.0569 133.819 75.3391 135.437 76.2675C137.054 77.1959 138.86 77.7464 140.72 77.8779C142.044 77.9863 143.485 76.6591 144.873 75.9915C143.931 74.6412 143.18 72.364 142.01 72.1169C138.639 71.4079 135.097 71.5209 131.621 71.3103V71.3109Z" fill="black"/>
<path d="M18.4781 94.4843C16.7463 94.3221 15.0799 93.7414 13.6223 92.7923C12.1647 91.8432 10.9596 90.554 10.1107 89.0359C7.76095 85.017 9.09492 81.1411 11.4974 77.6701C16.0343 71.1085 22.5464 67.9794 30.3952 67.6253C33.6394 67.479 35.354 69.0167 34.7506 72.0814C33.724 77.6864 32.2614 83.2027 30.3763 88.5801C28.8663 92.7012 25.1575 94.5832 18.4781 94.4843ZM27.879 73.8313C22.5248 75.3529 19.1749 77.7892 17.0379 81.5317C16.0039 83.3438 14.6299 85.3163 17.3676 86.997C20.0342 88.6344 23.1701 88.27 24.2813 85.5817C25.7731 81.9705 26.6141 78.0919 27.879 73.8285V73.8313Z" fill="black"/>
<path d="M52.0747 52.2298C48.817 49.2991 45.8105 46.6245 42.8405 43.9098C41.5945 42.7708 40.3783 41.5912 39.2346 40.3507C37.9961 39.0079 36.5768 37.4761 38.2392 35.6695C39.9172 33.8452 41.4855 35.1543 42.9393 36.3203C46.1016 38.8563 49.2456 41.4165 52.4573 43.8888C54.329 45.3291 56.3299 46.5974 58.2496 47.9801C61.5771 50.3718 62.4087 53.6769 59.6304 56.6361C55.801 60.5921 51.7098 64.286 47.3848 67.6931C45.5951 69.1469 43.0734 69.5051 41.2505 67.4256C39.2922 65.191 40.2016 62.8055 41.9744 61.076C45.0283 58.0993 48.3822 55.4327 52.0747 52.2298Z" fill="black"/>
<path d="M106.743 53.3909C109.443 54.7655 111.579 55.7358 113.594 56.912C115.578 57.9502 117.427 59.2273 119.1 60.7148C119.497 61.2177 119.766 61.8093 119.884 62.4388C120.002 63.0683 119.965 63.7172 119.777 64.3295C119.358 65.239 117.323 66.3562 116.621 66.0318C110.974 63.4248 105.256 60.8414 100.036 57.5065C97.8277 56.096 98.3261 52.6934 100.416 50.9023C106.294 45.8644 112.369 41.0479 118.523 36.3478C119.215 35.8189 121.178 36.2455 122.023 36.9051C122.486 37.2667 122.227 39.3522 121.617 40.12C120.377 41.6775 118.678 42.8687 117.164 44.2054C113.814 47.1585 110.467 50.1081 106.743 53.3909Z" fill="black"/>
<path d="M2.89234 56.6602C-4.11749 84.2113 2.02087 108.516 21.1496 128.912C21.6473 129.439 22.1551 129.965 22.6623 130.469C32.938 140.744 45.7367 147.089 55.8777 151.503C60.2304 153.404 82.5641 155.713 88.6069 154.813C124.518 149.45 148.151 129.196 156.381 95.3099C157.953 88.6721 158.736 81.8722 158.713 75.051C158.751 58.9823 151.986 40.301 138.033 26.3098C136.596 25.1228 135.165 23.8918 133.781 22.7001C130.779 20.1188 127.676 17.4474 124.43 15.1681C99.6323 -2.28466 73.8668 -2.38283 47.8528 6.87242C24.3003 15.248 9.17423 32.0013 2.89234 56.6602ZM47.9538 15.1235C70.7784 5.63802 93.6801 3.96411 116.017 18.1707C120.101 20.7709 130.99 29.5717 132.704 30.8928L132.814 30.9741L132.905 31.075C141.619 40.316 151.598 57.2128 151.378 74.5823C151.305 82.0095 150.299 89.3982 148.385 96.5747C142.711 117.197 129.146 132.227 106.915 142.508C84.3145 153.328 51.9036 142.389 43.2801 136.696C33.7488 130.179 25.4088 122.073 18.6245 112.73C7.98586 97.6662 5.59819 76.0145 11.3153 56.2202C13.991 47.081 18.6669 38.6517 25.0039 31.5435C31.341 24.4353 39.1804 18.8265 47.9538 15.1235Z" fill="black"/>
</svg>

<svg xmlns="http://www.w3.org/2000/svg" width="159" height="156" fill="none" viewBox="0 0 159 156"><path fill="#000" d="M82.118 122.78c-11.714-.548-22.752-3.067-31.937-10.98-5.815-5.01-8.65-11.376-8.622-19.035.023-6.374 2.452-9.228 8.912-9.793 10.09-.88 20.197-1.698 30.314-2.218 9.897-.508 19.815-.652 29.727-.88 7.99-.181 10.731 2.936 8.329 10.65a72.7 72.7 0 0 1-7.584 17.151c-6.761 10.697-16.387 15.276-29.139 15.105m-27.316-16.169c15.71-15.168 33.067-14.28 51.872-6.242l4.475-13.039-63.467 1.466c-.311 7.586 1.624 13.564 7.12 17.815m5.56 3.507c10.777 6.443 34.422 8.419 41.277-3.597-8.66-8.716-32.728-6.746-41.277 3.597m92.447-35.031c-.043 6.46-5.836 11.323-12.482 10.898-7.99-.51-15.713-6.906-17.922-14.694-.791-2.79.424-4.653 2.584-5.94 7.123-4.241 14.43-4.631 21.725-.455 4.04 2.315 5.829 6.062 6.095 10.19m-21.188-3.776-.239 1.206a12.36 12.36 0 0 0 9.338 5.361c1.324.108 2.765-1.219 4.153-1.886-.942-1.35-1.693-3.628-2.863-3.875-3.371-.71-6.913-.596-10.389-.807M18.478 94.484a10.73 10.73 0 0 1-8.367-5.448c-2.35-4.019-1.016-7.895 1.386-11.366 4.537-6.561 11.05-9.69 18.898-10.045 3.244-.146 4.959 1.392 4.356 4.456a109.5 109.5 0 0 1-4.375 16.5c-1.51 4.12-5.219 6.002-11.898 5.903m9.401-20.653c-5.354 1.522-8.704 3.958-10.841 7.7-1.034 1.813-2.408 3.785.33 5.466 2.666 1.637 5.802 1.273 6.913-1.415 1.492-3.611 2.333-7.49 3.598-11.753zM52.075 52.23c-3.258-2.93-6.265-5.605-9.235-8.32a59 59 0 0 1-3.605-3.56c-1.239-1.342-2.658-2.874-.996-4.68 1.678-1.825 3.247-.516 4.7.65 3.163 2.536 6.307 5.096 9.518 7.569 1.872 1.44 3.873 2.708 5.793 4.091 3.327 2.392 4.159 5.697 1.38 8.656a123 123 0 0 1-12.245 11.057c-1.79 1.454-4.312 1.812-6.134-.267-1.959-2.235-1.05-4.62.723-6.35 3.054-2.977 6.408-5.643 10.1-8.846m54.669 1.16c2.7 1.376 4.836 2.346 6.851 3.522a27.4 27.4 0 0 1 5.506 3.803 3.96 3.96 0 0 1 .677 3.614c-.419.91-2.454 2.027-3.156 1.703-5.647-2.607-11.365-5.19-16.585-8.525-2.208-1.411-1.71-4.814.38-6.605 5.878-5.038 11.953-9.854 18.107-14.554.692-.53 2.655-.102 3.5.557.463.362.204 2.447-.406 3.215-1.24 1.558-2.939 2.749-4.453 4.085z"/><path fill="#000" d="M2.892 56.66c-7.01 27.551-.871 51.856 18.258 72.252a69 69 0 0 0 1.512 1.557c10.276 10.275 23.075 16.62 33.216 21.034 4.352 1.901 26.686 4.21 32.729 3.31 35.911-5.363 59.544-25.617 67.774-59.503a86.6 86.6 0 0 0 2.332-20.259c.038-16.069-6.727-34.75-20.68-48.741a274 274 0 0 1-4.252-3.61c-3.002-2.581-6.105-5.253-9.351-7.532C99.632-2.285 73.867-2.382 47.853 6.872 24.3 15.248 9.174 32.002 2.893 56.66m45.062-41.536c22.824-9.486 45.726-11.16 68.063 3.047 4.084 2.6 14.973 11.4 16.687 12.722l.11.081.091.101c8.714 9.241 18.693 26.138 18.473 43.507a88.7 88.7 0 0 1-2.993 21.993c-5.674 20.622-19.239 35.652-41.47 45.933-22.6 10.82-55.011-.119-63.635-5.812a100.7 100.7 0 0 1-24.655-23.966c-10.64-15.064-13.027-36.716-7.31-56.51a64.18 64.18 0 0 1 36.639-41.096"/></svg>
